img/grey_wm_logo.svg

<svg width="450" height="416" viewBox="0 0 450 416" fill="none" xmlns="http://www.w3.org/2000/svg">
<g opacity="0.1">
<path d="M155.393 292.355C155.393 279.718 151.509 269.311 143.741 261.134C135.973 252.809 123.027 245.376 104.902 238.834C86.7763 232.144 72.679 225.975 62.6094 220.325C29.0921 201.742 12.3335 174.238 12.3335 137.815C12.3335 113.136 19.598 92.8428 34.1269 76.9354C48.6558 61.028 64.0479 52.0336 88.9341 49.0603V0H127.774V49.0603C152.804 52.7769 172.152 63.7783 185.818 82.0644C199.484 100.202 206.316 123.84 206.316 152.979H154.099C154.099 134.247 149.999 119.529 141.799 108.825C133.744 97.9719 122.739 92.5455 108.786 92.5455C94.9759 92.5455 84.187 96.4108 76.4191 104.142C68.6511 111.872 64.7672 122.948 64.7672 137.369C64.7672 150.303 68.5792 160.71 76.2033 168.589C83.9713 176.32 97.0617 183.679 115.475 190.666C133.888 197.653 148.345 204.12 158.846 210.067C169.347 216.014 178.194 222.853 185.386 230.583C192.579 238.165 198.117 246.937 202.001 256.897C205.885 266.858 207.827 278.528 207.827 291.909C207.827 317.033 200.347 337.401 185.386 353.011C170.57 368.621 152.588 378.061 125.976 380.886V415.154H88.9341V380.886C60.4516 377.615 38.5144 367.06 23.1223 349.22C7.8741 331.38 0.25 307.742 0.25 278.305H52.6837C52.6837 297.038 57.215 311.533 66.2776 321.791C75.484 332.049 88.4306 337.178 105.117 337.178C121.516 337.178 133.959 333.089 142.447 324.913C151.078 316.736 155.393 305.883 155.393 292.355Z" fill="white"/>
<rect x="277.02" y="172.981" width="34.5962" height="103.788" fill="white"/>
<rect x="346.211" y="138.385" width="34.5962" height="172.981" fill="white"/>
<rect x="415.404" y="103.788" width="34.5962" height="242.173" fill="white"/>
</g>
</svg>

<svg width="450" height="416" viewBox="0 0 450 416" fill="none" xmlns="http://www.w3.org/2000/svg"><path d="M155.393 292.355c0-12.637-3.884-23.044-11.652-31.221-7.768-8.325-20.714-15.758-38.839-22.3-18.126-6.69-32.223-12.859-42.293-18.509-33.517-18.583-50.276-46.087-50.276-82.51 0-24.679 7.265-44.972 21.794-60.88 14.529-15.907 29.92-24.901 54.807-27.875V0h38.84v49.06c25.03 3.717 44.378 14.718 58.044 33.004 13.666 18.138 20.498 41.776 20.498 70.915h-52.217c0-18.732-4.1-33.45-12.3-44.154-8.055-10.853-19.06-16.28-33.013-16.28-13.81 0-24.599 3.866-32.367 11.597-7.768 7.73-11.652 18.806-11.652 33.227 0 12.934 3.812 23.341 11.436 31.22 7.768 7.731 20.859 15.09 39.272 22.077 18.413 6.987 32.87 13.454 43.371 19.401 10.501 5.947 19.348 12.786 26.54 20.516 7.193 7.582 12.731 16.354 16.615 26.314 3.884 9.961 5.826 21.631 5.826 35.012 0 25.124-7.48 45.492-22.441 61.102-14.816 15.61-32.798 25.05-59.41 27.875v34.268H88.934v-34.268c-28.482-3.271-50.42-13.826-65.812-31.666C7.874 331.38.25 307.742.25 278.305h52.434c0 18.733 4.531 33.228 13.594 43.486 9.206 10.258 22.153 15.387 38.839 15.387 16.399 0 28.842-4.089 37.33-12.265 8.631-8.177 12.946-19.03 12.946-32.558zM277.02 172.981h34.596v103.788H277.02zm69.191-34.596h34.596v172.981h-34.596zm69.193-34.597H450v242.173h-34.596z" opacity=".1" fill="#fff"/></svg>
